X:1
T:Firm on the Rock I Stand
T:Firm on the Rock I Stand
T:Hubert Platt Main
T:Frances Jane (Fanny) Crosby, 1901
T:Public Domain Courtesy of the Cyber Hymnal™
C:Hubert Platt Main
Z:Public Domain
Z:Courtesy of the Cyber Hymnal™
%%score ( 1 2 ) ( 3 4 )
L:1/8
Q:1/4=105
M:6/8
K:G
V:1 treble 
V:2 treble 
V:3 bass 
V:4 bass 
V:1
 [GB]3 [Gc]2 [GB] | [^Ae]2 [Bd] [Gd]3 | G3 [FA]2 G | [GB]3- [GB]2 z | [DB]3 [Ec]2 [=FB] | %5
w: 1.~Firm on the|Rock I stand,|Je- sus, my|Lord, *|Held by Thy|
w: 2.~Thou art my|con- stant guest,|Je- sus, my|Lord; *|Safe in Thy|
w: 3.~Soon o’er the|swell- ing tide,|Je- sus, my|Lord, *|Home on the|
 [Fe]2 [Fd] d3 | (z2 [^CG]2) [CE] x | D3- D2 z | [CA]3 [CG]2 [CA] | [B,B]2 [B,A] [B,G]3 | %10
w: might- y hand,|* Je-|sus, *|my Lord. Filled|with Thy love|
w: fold I rest,|* Je-|sus, *|my Lord. What|though a cross|
w: o- ther side,|* Je-|sus, *|my Lord, I|shall a- wake|
 [Ec]3 [DB]2 [DA] | [Dd]2 [Dc] [DB]3 | [Ge]3 [Ec]2 [_EA] | [Dd]2 [DB] [B,G]3 | (z2 [DB]2) [CA] x | %15
w: di- vine, O|what a joy|is mine! I|am a child|* of|
w: I bear? Bright|is the pearl|I wear, Life|in Thy life|* I|
w: with Thee, Thine|through e- ter-|ni- ty, Thou|that hast died|* for|
 [B,G]3- [B,G]2 z ||"^Refrain" [DA]3 [DG]2 [DA] | [DB]3- [DB]2 z | [Fc]3 [DB]2 [DA] | %19
w: Thine, *|Je- sus, my|Lord. *||
w: share, *|Je- sus, my|Lord. *|Je- sus, my|
w: me, *|Je- sus, my|Lord. *||
 [Dd]3- [Dd]2 z | [Ge]3 [Ec]2 [_EA] | [Dd]2 [DB] [B,G]3 | (z2 [DG]2) [CF] x | [B,G]3- [B,G]2 z |] %24
w: |||||
w: Lord, *|Je- sus, my|Lord, I am|* a|child *|
w: |||||
V:2
 x6 | x6 | G3 G x2 | x6 | x6 | x3 (G2 E) | ([^CE]3 G/A/) x2 | D3- D2 x | x6 | x6 | x6 | x6 | x6 | %13
 x6 | ([FA]3 B/c/) x2 | x6 || x6 | x6 | x6 | x6 | x6 | x6 | ([EA]3 B/A/) x2 | x6 |] %24
V:3
 [G,D]3 [G,E]2 [G,D] | [G,^C]2 [G,D] [G,B,]3 | [D,B,]3 [D,C]2 [D,B,] | [G,D]3- [G,D]2 z | %4
 [E,^G,]3 [E,G,]2 [D,G,] | [C,A,]2 [C,A,] G,3 | [A,,A,]3 [A,,E,]2 [A,,G,] | [D,F,]3- [D,F,]2 z | %8
 [D,F,]3 [D,E,]2 [D,F,] | [^D,F,]2 [D,F,] [E,G,]3 | [A,,A,]3 [D,F,]2 [C,F,] | [B,,G,]2 [D,F,] G,3 | %12
 [C,G,]3 [C,G,]2 [C,F,] | [B,,G,]2 [G,,G,] [E,G,]3 | [C,G,]3 [D,G,]2 [D,F,] | %15
 [G,,G,]3- [G,,G,]2 z || [D,F,]3 [B,,G,]2 [A,,F,] | [G,,G,]3- [G,,G,]2 z | [D,A,]3 [D,F,]2 [C,F,] | %19
 [B,,G,]3- [B,,G,]2 z | [C,G,]3 [C,G,]2 [C,F,] | [B,,G,]2 [G,,G,] [E,G,]3 | [C,C]3 [D,B,]2 [D,A,] | %23
 [G,,G,]3- [G,,G,]2 z |] %24
V:4
 x6 | x6 | x6 | x6 | x6 | x3 (B,,2 _B,,) | x6 | x6 | x6 | x6 | x6 | x3 G,3 | x6 | x6 | x6 | x6 || %16
 x6 | x6 | x6 | x6 | x6 | x6 | x6 | x6 |] %24

